//@author: vux
//@help: template for texture fx
//@tags: texture
//@credits: 

Texture2D texture2d : PREVIOUS;
float GateValue = 0.2f;

SamplerState linearSampler : IMMUTABLE
{
    Filter = MIN_MAG_MIP_LINEAR;
    AddressU = Clamp;
    AddressV = Clamp;
};

struct psInput
{
	float4 p : SV_Position;
	float2 uv : TEXCOORD0;
};

float gate(float input) {
	return abs(input) > GateValue
		? (abs(input) - GateValue) * sign(input) * (1.0f - GateValue)
		: 0.0f;
	
}

float4 PS(psInput input) : SV_Target
{
	float4 col = texture2d.Sample(linearSampler,input.uv);
	col.r = gate(col.r);
	col.g = gate(col.g);
	return col;
}

technique10 Process
{
	pass P0
	{
		SetPixelShader(CompileShader(ps_4_0,PS()));
	}
}



